X:14
T:Wearing of the Green
C:Traditional
M:4/4
K:HP
|:{g}A3/2B/2|{GdG}c2 {gcd}c1{e}B1 {gcd}c1e1 {A}e1c1 | {gcd}c1{e}B1 {gBd}B1{e}A1{gBd}B2{gcd}c1e1|{gfg}f1d1 {ag}a3/2g/2 {fg}f1e1 {gcd}c1{e}A1|{gBd}B1{e}A1 {GAG}A3/2B/2{G}A2:|!
a3/2g/2|
{fg}f1e1 {A}e1c1 {gef}e1c1 {g}A3/2B/2|{gcd}c1{e}B1 {gcd}c1d1{gcd}c2{ag}a3/2g/2|{fg}f1e1 {A}e1c1 {gef}e1c1 {g}A3/2B/2|{gcd}c1{e}B1 {gBd}B3/2c/2{gBd}B2{g}A3/2B/2|!
{GdG}c2 {gcd}c1{e}B1 {gcd}c1e1 {A}e1c1|{gcd}c1{e}B1 {gBd}B1{e}A1{gBd}B2{gcd}c1e1|{gfg}f1d1 {ag}a3/2g/2 {fg}f1e1 {gcd}c1{e}A1|{gBd}B1{e}A1 {GAG}A3/2B/2 {G}A3|]!

